X:1
T: John Roy Stuart
C:
R:Strathspey
Q: 128
K:F
M:4/4
L:1/16
|:f2|c3B A3G F3G A3B|cF3 A3F cF3 Af3|c3B A3G F3G A3F|Dd3 d3c d4 d2f2|
c3B A3G F3G A3B|cF3 A3F cF3 Af3|c3B A3G F3G A3F|Dd3 d3c d4 d2f2|
c3d f3g a3f g3a|fc3 dcBA fc3 c3f|c3d f3g a3f g3a|da3 g3f d4 d2f2|
c3d f3g a3f g3a|fc3 dcBA fc3 c3f|a3f g3e f3d e3c|Ad3 d3c d4 d2:|
